X: 1
T:Castlebay
M:3/4
L:1/8
Q:200
C:Traditional
R:Waltz
Z:Diekoff & deLombard
K:G
|:"G"B6|B4 c2|d6|d4 cB|"C"c6|c4 d2|e6|e6|"Am"c6|c4 d2|e6|e4 a2|!
"Em"g6|e4 g2|"G"d6|d4 cB|"Am"A2 c2 e2|"G"d2 c2 B2|"Am"A6|A6:|
"Am"A2 c2 e2|"G"d2 c2 B2|"Am"A6|A6|!
% Output from ABC2Win  Version 2.1  on 2/10/98
